X: 712
T: Ey Gül-i Rana
C: Nev´eser Kökdeş
O: Turkey
F: http://compmusic.upf.edu/node/140
N: acemasiran--sarki--devrihindi--ey_gul-i_rana--neveser_kokdes
N: makam= acemasiran
N: form= sarki
N: usul= devrihindi = 7/4
M: 7/4
L: 1/16
K: C _B   
Q: 1/4=60
%%MIDI tuningsystem comma53
f4 a2g2 fef4ef efed egfe edd^c  | \
w:   | 
d4 dec4z2 def4ga b4 b2ba  | 
w:   | 
a3g f2a2 g6c4e2 f4 f4  | g3f a2g2 f4 z2f2 e2d2 c2B2 A2G2  | 
w:   |   | 
F6F4F4f4f2 f3/2e/de f4  | z2c2 cdc3/2B/ AGF4C4DE F6GA  | 
w:   |   | 
B4 BAA3GF2 A2G12EF  | EFED EFGE F4 EFEF EDEF GEF6  | 
w:   |   | 
f4 g2c'6 f'2_7/8e'2 d'2c'2 b4 b2b2  | \
w:   | 
b4 a2c'4d'2 a2b2 a2g2 g4 g2g2  | 
w:   | 
b2_a2 g2f2 e2f2 f4 g4 f4 g2g4g4f4f2 f3/2e/de f4 z2c2 cdc3/2B/  | 
w:   | 
AGF4C4DE F6GA B4 BAA3GF2 A2G12EF EFED EFGE  | 
w:   | 
F4 EFEF EDEF GEF6 f4 g2c'6 f'2_7/8e'2 d'2c'2 b4 b2b2 b4 a2c'4d'2 a2b2 a2g2 g4 g2g2 b2_a2 g2f2  | 
w:   | 
e2f2 f4 g4 f4 g2g4g4f4f2 f3/2e/de f4 z2c2 cdc3/2B/ AGF4C4DE F6GA B4 BAA3GF2 A2G12EF EFED EFGE F4 EFEF  | 
w:   | 
EDEF GEF6 f4 g2c'6 f'2_7/8e'2  | d'2c'2 b4 b2b2 b4 a2c'4d'2 a2b2  | 
w:   |   | 
a2g2 g4 g2g2 b2_a2 g2f2 e2f2 f4  | \
w:   | 
g4 f4 g2g4g4f4f2 f3/2e/de  | 
w:   | 
f4 z2c2 cdc3/2B/ AGF4C4DE F6GA B4 BAA3GF2 A2G12EF EFED EFGE F4 EFEF EDEF GEF6 f4 g2c'6 f'2_7/8e'2 d'2c'2 b4  | 
w:   | 
b2b2 b4 a2c'4d'2 a2b2 a2g2 g4  | g2g2 b2_a2 g2f2 e2f2 f4 g4 f4  | 
w:   |   | 
g2g4g4F6 c6B2 A2G2  | F6c6 d4 e2f6 c6d4c2 B2A2 d2c6 c6f2  | 
w:   |   | 
e2d2 c2B2 A2d6 d6_e2 d2c2  | B2A2 c2G6 C6F6 G4  | \
w:   |   | 
A2F6 c4 B2A4F2 G4 E2F6 F6f4f2 f3/2e/de f4 z2c2  | 
w:   | 
cdc3/2B/ AGF4C4DE F6GA B4  | BAA3GF2 A2G12EF EFED  | 
w:   |   | 
EFGE F4 EFEF EDEF GEF6 f4  | g2c'6 f'2_7/8e'2 d'2c'2 b4 b2b2 b4  | 
w:   |   | 
a2c'4d'2 a2b2 a2g2 g4 g2g2 b2_a2  | \
w:   | 
g2f2 e2f2 f4 g4 f4 g2g4g4f4f2 f3/2e/de f4 z2c2 cdc3/2B/ AGF4C4DE F6GA B4 BAA3GF2  | 
w:   | 
A2G12EF EFED EFGE F4  | EFEF EDEF GEF6 f4 g2c'6  | 
w:   |   | 
f'2_7/8e'2 d'2c'2 b4 b2b2 b4 a2c'4d'2  | \
w:   | 
a2b2 a2g2 g4 g2g2 b2_a2 g2f2 e2f2  | 
w:   | 
f4 g4 f4 g2g4g4F6  | c6B2 A2G2 F6c6 d4  | \
w:   |   | 
e2f6 c6d4c2 B2A2 d2c6 c6f2 e2d2 c2B2 A2d6  | 
w:   | 
d6_e2 d2c2 B2A2 c2G6 C6F6 G4 A2F6 c4 B2A4F2 G4 E2F6 F6|
w:   | 


